dist/uploads/catalog-sidebar-icons/1/i-catalog-7.svg

<svg width="27" height="39" viewBox="0 0 27 39" fill="none" xmlns="http://www.w3.org/2000/svg">
<path fill-rule="evenodd" clip-rule="evenodd" d="M2 2V19.4829H2.16867V12.9772H4.33724V19.4829H5.42152V12.9772H7.5901V19.4829H9.67518L7.66762 14.4642L9.68114 13.6588L11.8497 19.0803L10.843 19.4829H12.0115V2H2ZM12.0115 0H1.01652C0.455111 0 0 0.45511 0 1.01652V19.8043V21.8043H9.23901e-05V37.9158C9.23901e-05 38.2034 0.114329 38.4792 0.317673 38.6825C0.521016 38.8859 0.796808 39.0001 1.08438 39.0001H4.33724C4.62481 39.0001 4.9006 38.8859 5.10394 38.6825C5.30729 38.4792 5.42152 38.2034 5.42152 37.9158V32.4944H20.6015V37.9158C20.6015 38.2034 20.7158 38.4792 20.9191 38.6825C21.1225 38.8859 21.3983 39.0001 21.6858 39.0001H24.9387C25.2262 39.0001 25.502 38.8859 25.7054 38.6825C25.9087 38.4792 26.023 38.2034 26.023 37.9158V20.5672L26.0229 20.5531V19.8043V1.01652C26.0229 0.455111 25.5678 0 25.0064 0H14.0115H12.0115ZM14.0115 2V19.4829H18.433C17.8578 19.4829 17.3062 19.2545 16.8995 18.8478C16.4929 18.4411 16.2644 17.8895 16.2644 17.3144V14.0615C16.2644 13.7739 16.3786 13.4982 16.582 13.2948C16.7853 13.0915 17.0611 12.9772 17.3487 12.9772H21.6858C22.261 12.9772 22.8125 13.2057 23.2192 13.6124C23.6259 14.0191 23.8544 14.5707 23.8544 15.1458V16.2301C23.8544 16.8052 23.6259 17.3568 23.2192 17.7635C22.8125 18.1702 22.261 18.3987 21.6858 18.3987H21.3924C21.2023 18.7279 20.929 19.0014 20.5999 19.1917C20.2708 19.382 19.8974 19.4824 19.5172 19.4829H24.0229V2H14.0115ZM2.48625 21.9691C2.55027 21.9051 2.62147 21.8499 2.69796 21.8043H12.4822C12.5587 21.8499 12.6299 21.9051 12.6939 21.9691C12.8973 22.1724 13.0115 22.4482 13.0115 22.7358C13.0115 22.4482 13.1258 22.1724 13.3291 21.9691C13.3931 21.9051 13.4643 21.8499 13.5408 21.8043H23.3251C23.4016 21.8499 23.4728 21.9051 23.5368 21.9691C23.7402 22.1724 23.8544 22.4482 23.8544 22.7358V29.2415C23.8544 29.5291 23.7402 29.8049 23.5368 30.0082C23.3335 30.2116 23.0577 30.3258 22.7701 30.3258H14.0958C13.8082 30.3258 13.5325 30.2116 13.3291 30.0082C13.1258 29.8049 13.0115 29.5291 13.0115 29.2415C13.0115 29.5291 12.8973 29.8049 12.6939 30.0082C12.4906 30.2116 12.2148 30.3258 11.9272 30.3258H3.25295C2.96538 30.3258 2.68959 30.2116 2.48625 30.0082C2.2829 29.8049 2.16867 29.5291 2.16867 29.2415V22.7358C2.16867 22.4482 2.2829 22.1724 2.48625 21.9691ZM22.4525 14.3791C22.2492 14.1758 21.9734 14.0615 21.6858 14.0615V17.3144C21.9734 17.3144 22.2492 17.2001 22.4525 16.9968C22.6559 16.7935 22.7701 16.5177 22.7701 16.2301V15.1458C22.7701 14.8582 22.6559 14.5824 22.4525 14.3791ZM3.25285 29.2416H11.9271V22.7359H3.25285V29.2416ZM7.59 24.9045C7.80445 24.9045 8.01408 24.9681 8.1924 25.0872C8.3707 25.2063 8.50968 25.3757 8.59175 25.5738C8.67381 25.7719 8.69529 25.99 8.65345 26.2003C8.61161 26.4106 8.50834 26.6038 8.3567 26.7555C8.20506 26.9071 8.01186 27.0104 7.80153 27.0522C7.5912 27.094 7.37319 27.0726 7.17506 26.9905C6.97693 26.9084 6.80759 26.7695 6.68845 26.5911C6.5693 26.4128 6.50571 26.2032 6.50571 25.9887C6.50571 25.7012 6.61995 25.4254 6.82329 25.222C7.02664 25.0187 7.30243 24.9045 7.59 24.9045ZM14.096 22.7359V29.2416H22.7703V22.7359H14.096ZM18.4332 24.9045C18.6476 24.9045 18.8573 24.9681 19.0356 25.0872C19.2139 25.2063 19.3529 25.3757 19.4349 25.5738C19.517 25.7719 19.5385 25.99 19.4966 26.2003C19.4548 26.4106 19.3515 26.6038 19.1999 26.7555C19.0482 26.9071 18.855 27.0104 18.6447 27.0522C18.4344 27.094 18.2164 27.0726 18.0182 26.9905C17.8201 26.9084 17.6508 26.7695 17.5316 26.5911C17.4125 26.4128 17.3489 26.2032 17.3489 25.9887C17.3489 25.7012 17.4631 25.4254 17.6665 25.222C17.8698 25.0187 18.1456 24.9045 18.4332 24.9045Z" fill="#FFC800"/>
</svg>

<svg width="27" height="39" fill="none" xmlns="http://www.w3.org/2000/svg"><path fill-rule="evenodd" clip-rule="evenodd" d="M2 2v17.483h.169v-6.506h2.168v6.506h1.085v-6.506H7.59v6.506h2.085l-2.007-5.019 2.013-.805 2.169 5.421-1.007.403h1.168V2H2zm10.011-2H1.018C.455 0 0 .455 0 1.017v36.899A1.084 1.084 0 0 0 1.084 39h3.253a1.084 1.084 0 0 0 1.085-1.084v-5.422h15.18v5.422A1.084 1.084 0 0 0 21.686 39h3.253a1.084 1.084 0 0 0 1.084-1.084V1.017C26.023.455 25.568 0 25.006 0H12.011zm2 2v17.483h4.422a2.169 2.169 0 0 1-2.169-2.169v-3.252a1.084 1.084 0 0 1 1.085-1.085h4.337a2.168 2.168 0 0 1 2.168 2.169v1.084a2.169 2.169 0 0 1-2.168 2.169h-.294a2.169 2.169 0 0 1-1.875 1.084h4.506V2H14.012zM2.486 21.97c.064-.065.135-.12.212-.166h9.784a1.085 1.085 0 0 1 .53.932 1.084 1.084 0 0 1 .529-.932h9.784a1.085 1.085 0 0 1 .53.932v6.505a1.084 1.084 0 0 1-1.085 1.085h-8.674a1.084 1.084 0 0 1-1.085-1.085 1.084 1.084 0 0 1-1.084 1.085H3.253a1.084 1.084 0 0 1-1.084-1.085v-6.505c0-.288.114-.564.317-.767zm19.967-7.59a1.084 1.084 0 0 0-.767-.319v3.253a1.084 1.084 0 0 0 1.084-1.084v-1.084c0-.288-.114-.564-.317-.767zm-19.2 14.862h8.674v-6.506H3.253v6.506zm4.337-4.338a1.085 1.085 0 1 1 0 2.17 1.085 1.085 0 0 1 0-2.17zm6.506-2.168v6.506h8.674v-6.506h-8.674zm4.337 2.168a1.085 1.085 0 1 1 0 2.17 1.085 1.085 0 0 1 0-2.17z" fill="#FFC800"/></svg>
